_site/images/homepage/logos/visual-studio.svg

<svg fill="none" height="83" viewBox="0 0 113 83" width="113" xmlns="http://www.w3.org/2000/svg"><path clip-rule="evenodd" d="m82.2351 20.4709-11.9281-4.7824-21.0108 20.2008-12.694-9.555-4.8151 2.3888.0618 25.2423 4.8151 2.3888 12.694-9.5551 21.0108 20.2009 11.9281-4.7825zm-44.3687 26.2215v-10.6926l5.9569 5.3462h.0618zm19.2691-5.347 11.9757 8.9023v-17.8047l-12.0374 8.9024z" fill="#6e64c3" fill-rule="evenodd"/></svg>

<svg width="113" height="83" viewBox="0 0 113 83" fill="none" xmlns="http://www.w3.org/2000/svg">
<path fill-rule="evenodd" clip-rule="evenodd" d="M82.2351 20.4709L70.307 15.6885L49.2962 35.8893L36.6022 26.3343L31.7871 28.7231L31.8489 53.9654L36.664 56.3542L49.358 46.7991L70.3688 67L82.2969 62.2175L82.2351 20.4709ZM37.8664 46.6924V35.9998L43.8233 41.346H43.8851L37.8664 46.6924ZM57.1355 41.3454L69.1112 50.2477V32.443L57.0738 41.3454H57.1355Z" fill="#6E64C3"/>
</svg>
